public/images/wallets/ledger.svg

<?xml version="1.0" encoding="UTF-8"?>
<svg width="80px" height="80px" viewBox="0 0 80 80" version="1.1" xmlns="http://www.w3.org/2000/svg" xmlns:xlink="http://www.w3.org/1999/xlink">
    <!-- Generator: Sketch 56.3 (81716) - https://sketch.com -->
    <title>atoms / icon / 80px / ledger</title>
    <desc>Created with Sketch.</desc>
    <g id="atoms-/-icon-/-80px-/-ledger" stroke="none" stroke-width="1" fill="none" fill-rule="evenodd">
        <g id="boundingBox">
            <rect x="0" y="0" width="64" height="64"></rect>
        </g>
        <g id="Group-10" transform="translate(47.028837, 38.472451) rotate(-345.000000) translate(-47.028837, -38.472451) translate(7.028837, 5.972451)">
            <path d="M1.11771918,40.2665465 L74.1177192,40.2665465 C74.3938616,40.2665465 74.6177192,40.4904042 74.6177192,40.7665465 L74.6177192,60.7665465 C74.6177192,61.0426889 74.3938616,61.2665465 74.1177192,61.2665465 L1.11771918,61.2665465 C0.841576801,61.2665465 0.617719176,61.0426889 0.617719176,60.7665465 L0.617719176,40.7665465 C0.617719176,40.4904042 0.841576801,40.2665465 1.11771918,40.2665465 Z" id="Rectangle-6" fill="#27223F"></path>
            <path d="M9.73311504,47.3451881 L41.733115,47.3451881 C42.0092574,47.3451881 42.233115,47.5690457 42.233115,47.8451881 L42.233115,53.8451881 C42.233115,54.1213305 42.0092574,54.3451881 41.733115,54.3451881 L9.73311504,54.3451881 C9.45697266,54.3451881 9.23311504,54.1213305 9.23311504,53.8451881 L9.23311504,47.8451881 C9.23311504,47.5690457 9.45697266,47.3451881 9.73311504,47.3451881 Z" id="Rectangle-7" fill="#535285"></path>
            <path d="M8.22685038,22.4059657 L72.556254,22.8002249 C78.0337756,22.8337953 82.4658886,27.2659433 82.4994158,32.7434651 C82.5324171,38.1350619 78.1884171,42.5325676 72.7968203,42.5655688 C72.7569589,42.5658128 72.7170965,42.5658127 72.6772351,42.5655684 L8.3478315,42.1713091 L8.22685038,22.4059657 Z" id="Rectangle-6" fill="#6F6E98" transform="translate(45.393378, 32.516051) rotate(42.000000) translate(-45.393378, -32.516051) "></path>
            <circle id="Oval-3" stroke="#8F8EB1" fill="#27223F" cx="65.6388593" cy="51.022876" r="5"></circle>
            <path d="M10.4271524,60.8084338 L17.4271524,60.8084338 C17.7032948,60.8084338 17.9271524,61.0322914 17.9271524,61.3084338 L17.9271524,63.3084338 C17.9271524,63.5845761 17.7032948,63.8084338 17.4271524,63.8084338 L10.4271524,63.8084338 C10.1510101,63.8084338 9.92715244,63.5845761 9.92715244,63.3084338 L9.92715244,61.3084338 C9.92715244,61.0322914 10.1510101,60.8084338 10.4271524,60.8084338 Z" id="Rectangle-8" fill="#27223F"></path>
            <path d="M35.1622865,60.3923316 L42.1622865,60.3923316 C42.4384289,60.3923316 42.6622865,60.6161893 42.6622865,60.8923316 L42.6622865,62.8923316 C42.6622865,63.168474 42.4384289,63.3923316 42.1622865,63.3923316 L35.1622865,63.3923316 C34.8861442,63.3923316 34.6622865,63.168474 34.6622865,62.8923316 L34.6622865,60.8923316 C34.6622865,60.6161893 34.8861442,60.3923316 35.1622865,60.3923316 Z" id="Rectangle-8-Copy" fill="#27223F"></path>
        </g>
    </g>
</svg>

<svg width="80" height="80" xmlns="http://www.w3.org/2000/svg"><g fill="none" fill-rule="evenodd"><path d="M0 0h64v64H0z"/><g transform="rotate(15 20.832 62.18)"><path d="M1.118 40.267h73a.5.5 0 01.5.5v20a.5.5 0 01-.5.5h-73a.5.5 0 01-.5-.5v-20a.5.5 0 01.5-.5z" fill="#27223F"/><path d="M9.733 47.345h32a.5.5 0 01.5.5v6a.5.5 0 01-.5.5h-32a.5.5 0 01-.5-.5v-6a.5.5 0 01.5-.5z" fill="#535285"/><path d="M24.538.134L72.08 43.47a10.005 10.005 0 01.736 14.043c-3.583 4.029-9.754 4.39-13.782.807a9.762 9.762 0 01-.09-.08L11.404 14.903 24.538.133z" fill="#6F6E98"/><circle stroke="#8F8EB1" fill="#27223F" cx="65.639" cy="51.023" r="5"/><path d="M10.427 60.808h7a.5.5 0 01.5.5v2a.5.5 0 01-.5.5h-7a.5.5 0 01-.5-.5v-2a.5.5 0 01.5-.5zM35.162 60.392h7a.5.5 0 01.5.5v2a.5.5 0 01-.5.5h-7a.5.5 0 01-.5-.5v-2a.5.5 0 01.5-.5z" fill="#27223F"/></g></g></svg>
